svg/u1f638.svg

<svg viewBox="0 0 128 128" xmlns="http://www.w3.org/2000/svg">
  <defs/>
  <path d="M110.47,59.02 C119.98,34.19 114.12,15.19 110.76,9.74 C109.43,7.58 106.87,6.98 104.51,7.72 C98.29,9.68 81.5,23.4 74.08,42.6" fill="#FFC022"/>
  <path d="M17.53,59.02 C8.02,34.19 13.88,15.19 17.24,9.74 C18.57,7.58 21.13,6.98 23.49,7.72 C29.71,9.68 46.5,23.4 53.92,42.6" fill="#FFC022"/>
  <path d="M114.11,70.76 C112.31,44.78 94.44,26.3 64,26.3 C33.56,26.3 15.69,44.78 13.89,70.76 C12.84,85.9 18.94,98.77 30.98,106.97 C30.98,106.97 43.19,116.85 64,117.11 C84.81,116.85 97.02,106.97 97.02,106.97 C109.05,98.77 115.16,85.9 114.11,70.76 Z" fill="#FFC022"/>
  <path d="M54.12,45.02 C55.25,45.98 57.54,45.84 58.87,44.3 C60.48,42.43 62.16,36.13 61.11,26.39 C56.44,26.56 52.02,27.23 47.9,28.36 C51.23,33.82 52.03,43.24 54.12,45.02 Z" fill="#FF7043" opacity="0.47"/>
  <path d="M73.88,45.02 C72.75,45.98 70.46,45.84 69.13,44.3 C67.52,42.43 65.84,36.13 66.89,26.39 C71.56,26.56 75.98,27.23 80.1,28.36 C76.77,33.82 75.97,43.24 73.88,45.02 Z" fill="#FF7043" opacity="0.47"/>
  <path d="M123.073,65.976 L106.153,74.306 Q104.807,74.968 104.144,73.623 Q103.482,72.277 104.827,71.614 L121.747,63.284 Q122.42,62.953 122.922,63.124 Q123.424,63.295 123.756,63.967 Q124.418,65.313 123.073,65.976 Z" fill="#9E9E9E"/>
  <path d="M124.767,78.308 L106.617,81.468 Q105.14,81.725 104.882,80.247 Q104.625,78.77 106.103,78.512 L124.253,75.352 Q125.73,75.095 125.988,76.573 Q126.245,78.05 124.767,78.308 Z" fill="#9E9E9E"/>
  <path d="M121.925,94.389 L105.005,88.609 Q103.586,88.125 104.071,86.705 Q104.555,85.286 105.975,85.771 L122.895,91.551 Q124.314,92.035 123.829,93.455 Q123.345,94.874 121.925,94.389 Z" fill="#9E9E9E"/>
  <path d="M6.253,63.284 L23.173,71.614 Q23.845,71.946 24.016,72.448 Q24.187,72.95 23.856,73.623 Q23.193,74.968 21.847,74.306 L4.927,65.976 Q4.255,65.644 4.084,65.142 Q3.913,64.64 4.244,63.967 Q4.576,63.295 5.078,63.124 Q5.58,62.953 6.253,63.284 Z" fill="#9E9E9E"/>
  <path d="M3.747,75.352 L21.897,78.512 Q22.636,78.641 22.941,79.075 Q23.246,79.508 23.118,80.247 Q22.86,81.725 21.383,81.468 L3.233,78.308 Q2.494,78.179 2.189,77.745 Q1.884,77.312 2.012,76.573 Q2.27,75.095 3.747,75.352 Z" fill="#9E9E9E"/>
  <path d="M5.105,91.551 L22.025,85.771 Q22.735,85.528 23.211,85.762 Q23.687,85.995 23.929,86.705 Q24.414,88.125 22.995,88.609 L6.075,94.389 Q5.365,94.632 4.889,94.398 Q4.413,94.165 4.171,93.455 Q3.686,92.035 5.105,91.551 Z" fill="#9E9E9E"/>
  <path d="M32.56,70.26 C32.26,70.26 31.96,70.2 31.67,70.07 C30.55,69.58 30.03,68.27 30.53,67.15 C30.88,66.35 34.13,59.3 39.88,59.3 C45.56,59.3 49.05,66.04 49.43,66.81 C49.97,67.91 49.52,69.24 48.42,69.78 C47.32,70.32 46.25,69.66 45.45,68.77 C44.48,67.69 42.37,65.27 39.88,65.27 C37.38,65.27 35.3,67.86 34.6,68.92 C34.09,69.69 33.41,70.26 32.56,70.26 Z"/>
  <path d="M95.44,70.26 C95.74,70.26 96.04,70.2 96.33,70.07 C97.45,69.58 97.97,68.27 97.47,67.15 C97.12,66.35 93.87,59.3 88.12,59.3 C82.44,59.3 78.95,66.04 78.57,66.81 C78.03,67.91 78.48,69.24 79.58,69.78 C80.68,70.32 81.75,69.66 82.55,68.77 C83.52,67.69 85.63,65.27 88.12,65.27 C90.62,65.27 92.7,67.86 93.4,68.92 C93.91,69.69 94.59,70.26 95.44,70.26 Z"/>
  <path d="M55.96,76.98 C55.91,74.12 60.02,72.74 63.91,72.68 C67.8,72.61 71.98,73.88 72.03,76.74 C72.08,79.6 67.17,83.38 64.08,83.38 C60.99,83.38 56.01,79.84 55.96,76.98 Z"/>
  <path d="M90.06,90.38 C88.42,88.71 85.77,88.22 83.31,89.14 C80.6,90.16 72.31,93.27 68.09,90.59 C64.38,88.24 64.58,83.46 64.58,83.46 L63.01,83.46 C63.01,83.46 63.26,88.67 59.9,90.59 C55.55,93.09 47.39,90.15 44.68,89.14 C42.23,88.22 39.58,88.71 37.93,90.38 C36.38,91.95 36.11,94.2 37.21,96.26 C39.53,100.61 47.79,107.97 63.99,108.03 C80.19,107.98 88.45,100.61 90.77,96.26 C91.88,94.2 91.61,91.95 90.06,90.38 Z" fill="#FFFFFF"/>
  <path d="M91.58,88.8 C89.84,86.91 87.04,86.36 84.44,87.4 C81.57,88.55 72.8,92.08 68.33,89.04 C64.4,86.38 66,82.24 66,82.24 L62,82.24 C62,82.24 63.22,86.86 59.67,89.04 C55.06,91.87 46.43,88.54 43.56,87.4 C40.96,86.36 38.16,86.91 36.42,88.8 C34.78,90.58 34.49,93.13 35.66,95.46 C38.12,100.38 46.86,108.72 64,108.78 C81.15,108.72 89.88,100.38 92.34,95.46 C93.51,93.13 93.22,90.58 91.58,88.8 Z M89.66,94.12 C87.65,98.13 79.71,105.73 64,105.78 C48.29,105.72 40.35,98.13 38.34,94.12 C37.73,92.89 37.83,91.69 38.62,90.83 C39.19,90.21 40.02,89.88 40.92,89.88 C41.41,89.88 41.93,89.98 42.44,90.18 C48.05,92.43 56.12,95.01 61.33,91.54 C62.53,90.74 63.37,90.08 63.97,89.54 C63.98,89.55 63.99,89.56 64,89.56 C64.01,89.55 64.02,89.54 64.03,89.54 C64.63,90.08 65.48,90.74 66.67,91.54 C71.88,95.01 79.95,92.43 85.56,90.18 C86.07,89.98 86.58,89.88 87.08,89.88 C87.98,89.88 88.81,90.21 89.38,90.83 C90.17,91.7 90.27,92.89 89.66,94.12 Z"/>
  <path d="M43.93,89.54 L43.93,101.87 L41.93,101.87 L41.93,89.54 L43.93,89.54 Z" fill="#000000"/>
  <path d="M54.47,91.5 L54.47,105.15 L52.47,105.15 L52.47,91.5 L54.47,91.5 Z" fill="#000000"/>
  <path d="M65,86.8 L65,106.71 L63,106.71 L63,86.8 L65,86.8 Z" fill="#000000"/>
  <path d="M86.07,88.39 L86.07,100.72 L84.07,100.72 L84.07,88.39 L86.07,88.39 Z" fill="#000000"/>
  <path d="M75.53,90.48 L75.53,104.66 L73.53,104.66 L73.53,90.48 L75.53,90.48 Z" fill="#000000"/>
  <path d="M92.16,36.23 C90.62,34.94 90.66,32.86 91.56,31.07 C93.72,26.76 98.89,22.29 100.72,20.84 C103.72,18.46 106.04,17.66 106.93,21.49 C108.58,28.57 108.45,38.18 106.68,43.48 C106.06,45.35 104.14,46.34 102.66,45.05 L92.16,36.23 Z" fill="#FFD1D1"/>
  <path d="M35.84,36.23 C37.38,34.94 37.34,32.86 36.44,31.07 C34.28,26.76 29.11,22.29 27.28,20.84 C24.28,18.46 21.96,17.66 21.07,21.49 C19.42,28.57 19.55,38.18 21.32,43.48 C21.94,45.35 23.86,46.34 25.34,45.05 L35.84,36.23 Z" fill="#FFD1D1"/>
</svg>

<svg viewBox="0 0 128 128" xmlns="http://www.w3.org/2000/svg">
  <g>
    <path d="M110.47,59.02c9.51-24.83,3.65-43.83,0.29-49.28c-1.33-2.16-3.89-2.76-6.25-2.02 C98.29,9.68,81.5,23.4,74.08,42.6" fill="#FFC022"/>
    <path d="M17.53,59.02c-9.51-24.83-3.65-43.83-0.29-49.28c1.33-2.16,3.89-2.76,6.25-2.02 C29.71,9.68,46.5,23.4,53.92,42.6" fill="#FFC022"/>
    <path d="M114.11,70.76C112.31,44.78,94.44,26.3,64,26.3S15.69,44.78,13.89,70.76 c-1.05,15.14,5.05,28.01,17.09,36.21c0,0,12.21,9.88,33.02,10.14c20.81-0.26,33.02-10.14,33.02-10.14 C109.05,98.77,115.16,85.9,114.11,70.76z" fill="#FFC022"/>
    <path d="M54.12,45.02c1.13,0.96,3.42,0.82,4.75-0.72c1.61-1.87,3.29-8.17,2.24-17.91 c-4.67,0.17-9.09,0.84-13.21,1.97C51.23,33.82,52.03,43.24,54.12,45.02z" fill="#FF7043" opacity="0.47"/>
    <path d="M73.88,45.02c-1.13,0.96-3.42,0.82-4.75-0.72c-1.61-1.87-3.29-8.17-2.24-17.91 c4.67,0.17,9.09,0.84,13.21,1.97C76.77,33.82,75.97,43.24,73.88,45.02z" fill="#FF7043" opacity="0.47"/>
    <g>
      <g>
        <line fill="none" stroke="#9E9E9E" stroke-linecap="round" stroke-miterlimit="10" stroke-width="3" x1="122.41" x2="105.49" y1="64.63" y2="72.96"/>
        <line fill="none" stroke="#9E9E9E" stroke-linecap="round" stroke-miterlimit="10" stroke-width="3" x1="124.51" x2="106.36" y1="76.83" y2="79.99"/>
        <line fill="none" stroke="#9E9E9E" stroke-linecap="round" stroke-miterlimit="10" stroke-width="3" x1="122.41" x2="105.49" y1="92.97" y2="87.19"/>
      </g>
      <g>
        <line fill="none" stroke="#9E9E9E" stroke-linecap="round" stroke-miterlimit="10" stroke-width="3" x1="5.59" x2="22.51" y1="64.63" y2="72.96"/>
        <line fill="none" stroke="#9E9E9E" stroke-linecap="round" stroke-miterlimit="10" stroke-width="3" x1="3.49" x2="21.64" y1="76.83" y2="79.99"/>
        <line fill="none" stroke="#9E9E9E" stroke-linecap="round" stroke-miterlimit="10" stroke-width="3" x1="5.59" x2="22.51" y1="92.97" y2="87.19"/>
      </g>
    </g>
    <g>
      <path d="M32.56,70.26c-0.3,0-0.6-0.06-0.89-0.19c-1.12-0.49-1.64-1.8-1.14-2.92c0.35-0.8,3.6-7.85,9.35-7.85 c5.68,0,9.17,6.74,9.55,7.51c0.54,1.1,0.09,2.43-1.01,2.97c-1.1,0.54-2.17-0.12-2.97-1.01c-0.97-1.08-3.08-3.5-5.57-3.5 c-2.5,0-4.58,2.59-5.28,3.65C34.09,69.69,33.41,70.26,32.56,70.26z"/>
      <path d="M95.44,70.26c0.3,0,0.6-0.06,0.89-0.19c1.12-0.49,1.64-1.8,1.14-2.92c-0.35-0.8-3.6-7.85-9.35-7.85 c-5.68,0-9.17,6.74-9.55,7.51c-0.54,1.1-0.09,2.43,1.01,2.97c1.1,0.54,2.17-0.12,2.97-1.01c0.97-1.08,3.08-3.5,5.57-3.5 c2.5,0,4.58,2.59,5.28,3.65C93.91,69.69,94.59,70.26,95.44,70.26z"/>
    </g>
    <path d="M55.96,76.98c-0.05-2.86,4.06-4.24,7.95-4.3c3.89-0.07,8.07,1.2,8.12,4.06s-4.86,6.64-7.95,6.64S56.01,79.84,55.96,76.98z"/>
    <path d="M90.06,90.38c-1.64-1.67-4.29-2.16-6.75-1.24c-2.71,1.02-11,4.13-15.22,1.45 c-3.71-2.35-3.51-7.13-3.51-7.13h-1.57c0,0,0.25,5.21-3.11,7.13c-4.35,2.5-12.51-0.44-15.22-1.45c-2.45-0.92-5.1-0.43-6.75,1.24 c-1.55,1.57-1.82,3.82-0.72,5.88c2.32,4.35,10.58,11.71,26.78,11.77c16.2-0.05,24.46-7.42,26.78-11.77 C91.88,94.2,91.61,91.95,90.06,90.38z" fill="#FFFFFF"/>
    <path d="M91.58,88.8c-1.74-1.89-4.54-2.44-7.14-1.4c-2.87,1.15-11.64,4.68-16.11,1.64c-3.93-2.66-2.33-6.8-2.33-6.8h-4 c0,0,1.22,4.62-2.33,6.8c-4.61,2.83-13.24-0.5-16.11-1.64c-2.6-1.04-5.4-0.49-7.14,1.4c-1.64,1.78-1.93,4.33-0.76,6.66 c2.46,4.92,11.2,13.26,28.34,13.32c17.15-0.06,25.88-8.4,28.34-13.32C93.51,93.13,93.22,90.58,91.58,88.8z M89.66,94.12 c-2.01,4.01-9.95,11.61-25.66,11.66c-15.71-0.06-23.65-7.65-25.66-11.66c-0.61-1.23-0.51-2.43,0.28-3.29 c0.57-0.62,1.4-0.95,2.3-0.95c0.49,0,1.01,0.1,1.52,0.3c5.61,2.25,13.68,4.83,18.89,1.36c1.2-0.8,2.04-1.46,2.64-2 c0.01,0.01,0.02,0.02,0.03,0.02c0.01-0.01,0.02-0.02,0.03-0.02c0.6,0.54,1.45,1.2,2.64,2c5.21,3.47,13.28,0.89,18.89-1.36 c0.51-0.2,1.02-0.3,1.52-0.3c0.9,0,1.73,0.33,2.3,0.95C90.17,91.7,90.27,92.89,89.66,94.12z"/>
    <g>
      <line fill="none" stroke="#000000" stroke-miterlimit="10" stroke-width="2" x1="42.93" x2="42.93" y1="89.54" y2="101.87"/>
      <line fill="none" stroke="#000000" stroke-miterlimit="10" stroke-width="2" x1="53.47" x2="53.47" y1="91.5" y2="105.15"/>
      <line fill="none" stroke="#000000" stroke-miterlimit="10" stroke-width="2" x1="64" x2="64" y1="86.8" y2="106.71"/>
      <line fill="none" stroke="#000000" stroke-miterlimit="10" stroke-width="2" x1="85.07" x2="85.07" y1="88.39" y2="100.72"/>
      <line fill="none" stroke="#000000" stroke-miterlimit="10" stroke-width="2" x1="74.53" x2="74.53" y1="90.48" y2="104.66"/>
    </g>
    <path d="M92.16,36.23c-1.54-1.29-1.5-3.37-0.6-5.16c2.16-4.31,7.33-8.78,9.16-10.23 c3-2.38,5.32-3.18,6.21,0.65c1.65,7.08,1.52,16.69-0.25,21.99c-0.62,1.87-2.54,2.86-4.02,1.57L92.16,36.23z" fill="#FFD1D1"/>
    <path d="M35.84,36.23c1.54-1.29,1.5-3.37,0.6-5.16c-2.16-4.31-7.33-8.78-9.16-10.23 c-3-2.38-5.32-3.18-6.21,0.65c-1.65,7.08-1.52,16.69,0.25,21.99c0.62,1.87,2.54,2.86,4.02,1.57L35.84,36.23z" fill="#FFD1D1"/>
  </g>
</svg>
